X:9413
T:Le Petit Doil(). JB.26
T:Di'el on Twa Sticks. JB.26
M:6/8
L:1/8
Q:120
S:James Biggins MS, Leeds, 1779.
R:Jig
O:England
A:Yorkshire
Z:vmp.Nick Barber & Chris Partington
K:G
D2DG2G|ABcB2A|BdDG2G|ABcB2A:|!
|:B2cd2d|ABcB2A|G2GF2F|E2ED2c|!
BdDG2G|ABcB2A|BdDG2G|cBAG2|]
